assets/icons/few-clouds-night.svg

<?xml version="1.0" encoding="UTF-8" standalone="no"?>
<svg viewBox="0 0 24 24" height="24" width="24" version="1.1" id="svg4" sodipodi:docname="few-clouds-night.svg" inkscape:version="1.1 (ce6663b3b7, 2021-05-25)"
   xmlns:inkscape="http://www.inkscape.org/namespaces/inkscape"
   xmlns:sodipodi="http://sodipodi.sourceforge.net/DTD/sodipodi-0.dtd"
   xmlns="http://www.w3.org/2000/svg"
   xmlns:svg="http://www.w3.org/2000/svg">
   <defs id="defs8" />
   <sodipodi:namedview id="namedview6" pagecolor="#ffffff" bordercolor="#666666" borderopacity="1.0" inkscape:pageshadow="2" inkscape:pageopacity="0.0" inkscape:pagecheckerboard="0" showgrid="true" inkscape:snap-page="true" inkscape:zoom="19.79899" inkscape:cx="20.884904" inkscape:cy="20.556604" inkscape:window-width="1920" inkscape:window-height="1043" inkscape:window-x="1920" inkscape:window-y="0" inkscape:window-maximized="1" inkscape:current-layer="svg4">
      <inkscape:grid type="xygrid" id="grid6" />
   </sodipodi:namedview>
   <path id="path303" style="fill:#808080;fill-opacity:1;fill-rule:evenodd;stroke-width:0.5;stroke-linecap:square;stroke-linejoin:round" d="M 12.697266 2.2929688 A 7.5 7.5 0 0 1 13.402344 3.5898438 C 13.79094 4.5108438 13.991484 5.5004 13.992188 6.5 C 13.992188 10.6422 10.634324 14 6.4921875 14 C 5.4967225 13.99 4.5127552 13.786431 3.5976562 13.394531 A 7.5 7.5 0 0 1 2.2929688 12.695312 A 8.5 8.5 0 0 0 2.8300781 14.162109 A 8.5 8.5 0 0 0 3.5507812 14.464844 A 8.5 8.5 0 0 0 4.296875 14.699219 C 5.012386 14.894819 5.7504275 14.996 6.4921875 15 C 11.186607 15 14.992188 11.1945 14.992188 6.5 C 14.991547 5.7553 14.893048 5.0139219 14.699219 4.2949219 A 8.5 8.5 0 0 0 14.462891 3.5507812 A 8.5 8.5 0 0 0 14.160156 2.8320312 A 8.5 8.5 0 0 0 12.697266 2.2929688 z M 14.160156 2.8320312 C 14.272217 3.0670312 14.372953 3.3066813 14.462891 3.5507812 C 14.552831 3.7948812 14.631973 4.0433219 14.699219 4.2949219 C 16.757542 5.6895219 17.990909 8.0137 17.992188 10.5 C 17.992188 11.114489 17.916737 11.71164 17.777344 12.283203 C 18.098376 12.409721 18.401992 12.570872 18.685547 12.759766 C 18.883602 12.040008 18.992188 11.282699 18.992188 10.5 C 18.992231 7.2269 17.112862 4.2444313 14.160156 2.8320312 z M 4.296875 14.699219 C 4.044684 14.632219 3.7955063 14.554444 3.5507812 14.464844 C 3.3060563 14.374844 3.0657831 14.274009 2.8300781 14.162109 C 3.8728262 16.346269 5.7759546 17.941537 8.0195312 18.626953 C 8.0479278 18.283665 8.1220872 17.955234 8.234375 17.644531 C 6.6483444 17.13905 5.2531621 16.114369 4.296875 14.699219 z " />
   <path id="rect1606" style="fill:#808080;fill-opacity:1;fill-rule:evenodd;stroke-width:0.5;stroke-linecap:square;stroke-linejoin:round" d="m 16.003906,12.949213 c -1.822234,0.004 -3.411458,1.239072 -3.865234,3.003906 -0.04489,-0.0023 -0.08982,-0.0036 -0.134766,-0.0039 -1.656854,0 -3,1.343146 -3,3 0,1.656854 1.343146,3 3,3 h 7.5 c 1.380712,0 2.5,-1.119288 2.5,-2.5 -5.06e-4,-1.189077 -0.838475,-2.213261 -2.003906,-2.449219 0.0014,-0.01692 0.0027,-0.03385 0.0039,-0.05078 0,-2.209139 -1.790861,-4 -4,-4 z m 0,1 c 1.656854,0 3,1.343146 3,3 -0.0011,0.01954 -0.0024,0.03908 -0.0039,0.05859 -0.0094,0.397534 -0.09766,0.789241 -0.259766,1.152344 0.231053,-0.137483 0.494811,-0.210337 0.763672,-0.210938 0.11978,7.9e-5 0.23912,0.0145 0.355469,0.04297 0.671719,0.163851 1.14442,0.765617 1.144531,1.457031 0,0.828427 -0.671573,1.5 -1.5,1.5 h -7.5 c -1.104569,0 -2,-0.895431 -2,-2 0,-1.104569 0.895431,-2 2,-2 0.359587,2.17e-4 0.712464,0.09738 1.021484,0.28125 -0.01157,-0.09336 -0.01874,-0.187215 -0.02148,-0.28125 0.0028,-0.265579 0.04093,-0.529606 0.113281,-0.785156 0.353638,-1.304139 1.535489,-2.210918 2.886719,-2.214844 z" />
</svg>

<svg height="24" width="24" xmlns="http://www.w3.org/2000/svg"><path style="fill:gray;fill-opacity:1;stroke-width:.5;stroke-linecap:square;stroke-linejoin:round" d="M12.697 2.293a7.5 7.5 0 0 1 .705 1.297A7.5 7.5 0 0 1 6.492 14a7.542 7.542 0 0 1-2.894-.605 7.5 7.5 0 0 1-1.305-.7 8.5 8.5 0 0 0 .537 1.467 8.5 8.5 0 0 0 .72.303 8.5 8.5 0 0 0 .747.234A8.5 8.5 0 0 0 6.492 15 8.5 8.5 0 0 0 14.7 4.295a8.5 8.5 0 0 0-.236-.744 8.5 8.5 0 0 0-.303-.719 8.5 8.5 0 0 0-1.463-.539zm1.463.539a8.48 8.48 0 0 1 .54 1.463 7.5 7.5 0 0 1 3.077 7.988c.321.127.625.288.909.477a8.5 8.5 0 0 0-4.525-9.928zM4.297 14.699a8.57 8.57 0 0 1-1.467-.537 8.499 8.499 0 0 0 5.19 4.465c.028-.343.102-.672.214-.982a7.497 7.497 0 0 1-3.937-2.946zm11.707-1.749a4 4 0 0 0-3.865 3.003 3 3 0 1 0-.135 5.996h7.5A2.5 2.5 0 0 0 20 17a4.32 4.32 0 0 0 .004-.05 4 4 0 0 0-4-4zm0 1a3 3 0 0 1 3 3l-.004.058a3 3 0 0 1-.26 1.152 1.5 1.5 0 0 1 1.12-.168 1.5 1.5 0 0 1-.356 2.957h-7.5a2 2 0 1 1 1.021-3.719 2.996 2.996 0 0 1-.021-.28c.003-.266.04-.53.113-.786a3 3 0 0 1 2.887-2.215z"/></svg>
